svg/dozzle.svg

<svg width="128" height="128" viewBox="0 0 128 128" fill="none" xmlns="http://www.w3.org/2000/svg">
<rect width="128" height="128" rx="6" fill="#222222"/>
<path d="M82.3248 94.3863H123V104.093H67.8025V95.3506L106.164 44.3736H68.3808V34.5382H121.072V42.9594L82.3248 94.3863Z" fill="#FFDD57"/>
<path d="M8 107.107L17.5656 14L43.8372 16.7013C51.9339 17.5338 58.9091 20.0604 64.7629 24.2812C70.6166 28.5019 74.8873 34.0893 77.5749 41.0432C80.3052 48.0016 81.2514 55.7674 80.4137 64.3407L79.8027 70.2877C78.9005 79.0698 76.4053 86.5894 72.3173 92.8468C68.2719 99.1084 62.914 103.684 56.2436 106.574C49.6158 109.468 42.1213 110.529 33.7602 109.755L8 107.107ZM28.8005 25.3655L21.3043 98.3288L34.2164 99.6565C43.6767 100.629 51.3299 98.4435 57.1758 93.0993C63.0644 87.7595 66.5671 79.6542 67.684 68.7832L68.2424 63.3477C69.3286 52.7752 67.6788 44.3123 63.293 37.9592C58.9542 31.5678 52.2295 27.8607 43.1188 26.8377L28.8005 25.3655Z" fill="#FFDD57"/>
</svg>

<svg xmlns="http://www.w3.org/2000/svg" width="128" height="128" fill="none" viewBox="0 0 128 128"><rect width="128" height="128" fill="#222" rx="6"/><path fill="#FFDD57" d="M82.325 94.386H123v9.707H67.802v-8.742l38.362-50.977H68.381v-9.836h52.691v8.421z"/><path fill="#FFDD57" d="M8 107.107 17.566 14l26.271 2.701c8.097.833 15.072 3.36 20.926 7.58 5.854 4.22 10.124 9.808 12.812 16.762 2.73 6.959 3.676 14.724 2.839 23.298l-.611 5.947c-.903 8.782-3.398 16.301-7.486 22.559-4.045 6.261-9.403 10.837-16.073 13.727-6.628 2.894-14.123 3.955-22.484 3.181zm20.8-81.741-7.496 72.963 12.912 1.328c9.46.972 17.114-1.213 22.96-6.558 5.888-5.34 9.391-13.445 10.508-24.316l.558-5.435c1.087-10.573-.563-19.036-4.949-25.389-4.339-6.391-11.063-10.098-20.174-11.121z"/></svg>
